!!!!SEGMENT: pl-sa--552-a-ix-32--004_anonim--polonez.krn
!!!cenid: 18xx:515
!!!COM: Anonim
!!!COM-rismID: pe30004985
!!!CDT:
!!!CNT:
!!!OTL: Polonez
!!!PDT:
!!!AGN: Secular; Polonaise
!!!SMS-siglum: PL-SA
!!!SMS-shelfmark: 552/A IX 32
!!!SMS-shelfwork: 004 W
!!!SMS-variant:
!!!SMS-altvar:
!!!NIFC-rismSourceID: 1001069492
!!!NIFC-rismChildID: 1001069492
!!!NIFC-islandoraID: none
!!!URL-pdf-islandora:
!!!URL-scan: https://bc.bdsandomierz.pl/dlibra/publication/1308/edition/1276/content @EN{Scan in the Sandomierz Diocese Digital Library} @PL{Skany w portalu Cyfrowa Biblioteka Diecezjalna w Sandomierzu}
!!!IIIF:
!!!ONB-nifc: Str. 3 – str. 4 (s. 1-2)
!!!AIN: 1 empty
!!!key:
**kern	**kern
*part1	*part1
*staff2	*staff1
*Iempty	*Ipiano
*	*I"Piano
*clefF4	*clefG2
*k[f#]	*k[f#]
*G:	*G:
*M3/4	*M3/4
*>[A,B,B,C,C,D,D1,D,D2,E,E]	*>[A,B,B,C,C,D,D1,D,D2,E,E]
=1	=1
*>A	*>A
*2\right	*2\right
!	!LO:TX:a:Bi:t=Polo&colon;:rj
2.ryy	8.ggL 8.g/
.	16ff#Jk 16f#/
.	8eeL 8e/
.	8dd 8d/
!	!LO:SIC:n=2:s=8c:v
.	8cc 8d/
.	8bJ 8B/
=2	=2
2.ryy	8aL 8A/
.	8g#XJ 8G#X/
.	4.a 4.A/
.	8gn 8Gn/
=3	=3
2.ryy	8.aL 8.A/
!	!LO:N:vis=8
.	16gJk 16G/
.	8aL 8A/
.	8b 8B/
.	8cc 8c/
.	8ddJ 8d/
=4	=4
2.ryy	8eeL 8e/
.	8b 8B/
.	8cc 8c/
.	8dd 8d/
.	8ee 8e/
.	8ff#J 8f#/
=5	=5
2.ryy	8ggL 8g/
.	8dd 8d/
.	8ee 8e/
.	8ff# 8f#/
.	8gg 8g/
.	8aaJ 8a/
=6	=6
2.ryy	8bbL 8b/
.	8ff# 8f#/
.	8gg 8g/
.	8cc#X 8c#X/
.	8dd 8d/
.	8a#XJ 8A#X/
=7	=7
2.ryy	8bL 8B/
.	8f# 8F#/
.	8g 8G/
.	8a 8A/
.	8b 8B/
.	8cc#XJ 8c#X/
=8	=8
2.ryy	8.ddL 8.d/
.	16ddJk 16d/
.	8ddL 8d/
.	8ddJ 8d/
.	4dd 4d/
!LO:TX:a:t=[segno]:problem=znak segno na kresce taktowej	!LO:TX:a:t=[segno]:problem=znak segno na kresce taktowej
=9||	=9||
*>B	*>B
!	!LO:TX:b:Bi:t=Dolce
8cL 8A\	8.dd\L
8F#\J	.
.	16ee\Jk
*rep	*
8cL 8A\	16ff#\LL
.	16gg\
8F#\J	16aa\
.	16bb\JJ
*Xrep	*
*rep	*
8cL 8A\	16ccc\LL
.	16bb\
8F#\J	16eee\
.	16ddd\JJ
*Xrep	*
!!LO:LB:g=original
=10	=10
*tremolo	*
8B 8G\L	8.ddd\L
8D\	.
.	16bb\Jk
!	!LO:TX:a:t=h:problem='h' po prawej stronie nuty 2ccc
!	!LO:TX:a:t=g:problem='g' po prawej stronie nuty 2aa
!	!LO:SIC:n=1:s=2bb:v
!	!LO:SIC:n=2:s=2gg:v
8B 8G\	(>2ccc &(>2aa\
8D\	.
8B 8G\	.
8D\J	.
=11	=11
!	!LO:S:s=1:note:problem=note-level slur
!	!LO:S:s=2:note:problem=note-level slur
8c 8A\L	8.eeL) 8.e\&)
8F#\	.
.	16eeJk 16e\
8c 8A\	16ff#LL 16f#\
.	16gg 16g\
8F#\	16aa 16a\
.	16bbJJ 16b\
8c 8A\	16cccLL 16cc\
.	16ddd 16dd\
8F#\J	16eee 16ee\
.	16fff#JJ 16ff#\
=12	=12
8B 8G\L	8.dddL 8.dd\
8D\	.
.	16bbJk 16b\
8B 8G\	2ddd 2dd\
8D\	.
8B 8G\	.
8D\J	.
=13	=13
8c 8A\L	16ddd\LL
.	16ccc\
8F#\	16gg#X\
.	16aa\JJ
8c 8A\	16gg#\LL
.	16aa\
8F#\	16bb\
.	16aa\JJ
8c 8A\	16ggn\LL
.	16ff#\
8F#\J	16ee\
.	16dd\JJ
=14	=14
8B 8G\L	16dd\LL
.	16gg\
8D\	16bb\
.	16aa\JJ
8B 8G\	16gg\LL
.	16ff#\
8D\	16ee\
.	16dd\JJ
8B 8G\	16cc#X\LL
.	16dd\
8D\J	16ee\
.	16dd\JJ
=15	=15
8c 8A\L	16dd\LL
.	16ccn\
8F#\	16g#X\
.	16a\JJ
8c 8A\	16g#\LL
.	16a\
8F#\	16b\
.	16a\JJ
8c 8A\	16gn/LL
.	16f#/
8F#\J	16e/
.	16d/JJ
*Xtremolo	*
=16	=16
!	!LO:N:vis=8
4B 4G\	16r
.	16d/LL
.	16g/
.	16d/JJ
8r	16b/LL
.	16g/
!	!LO:TX:a:t=2:problem=dopisane najprawdopodobniej pózniej
8dL 8B\	16dd/
.	16b/JJ
8B 8G\	16gg\LL
.	16bb\
8AJ 8D\	16aa\
.	16ff#\JJ
!!LO:LB:g=original
=17	=17
8.FF#L 8.FFF#/	8.ggL 8.dd 8.b\
16GGJk 16GGG/	16ggJk 16dd 16b\
8.AAL 8.AAA/	8.ff#L 8.dd 8.cc\
16AAJk 16AAA/	16ff#Jk 16dd 16cc\
8.BBL 8.BBB/	8.ggL 8.b 8.g\
16BBJk 16BBB/	16ggJk 16b 16g\
=18	=18
8.CL 8.CC/	8.eeL 8.cc 8.g\
16CJk 16CC/	16eeJk 16cc 16g\
2BB 2BBB/	2gg#X 2dd 2g#X\
=19	=19
8.AAL 8.AAA/	8.aaL 8.ee 8.cc\
16AAJk 16AAA/	16aaJk 16ee 16cc\
2AA#X 2AAA#X/	2eee 2ccc 2gg\
=20	=20
!	!LO:TX:a:t=P:problem=w źródle akord nachodzi na poprzedni system [zachacza dźwiękiem fff#]
8.CnL 8.CCn/	8.fff#XL 8.ddd 8.aa\
*	*8va
16CJk 16CC/	16fff#XJk 16ddd 16aa\
2BB 2BBB/	2ggg 2ddd 2gg\
*	*X8va
=21	=21
!	!LO:TX:a:Bi:t=loco
2.A 2.E 2.C\	8r
.	16e/LL
.	16ee/JJ
.	16a\LL
.	16aa\
.	16cc\
.	16ccc\JJ
.	16ee\LL
.	16eee\JJ
.	16gg\LL
.	16ggg\JJ
=22	=22
8BL 8G\	16ddd\LL
.	16ccc\
8AJ 8D\	16bb\
.	16aa\JJ
.	8qaa/
8r	2gg\
8A 8D\	.
4B 4G\	.
=23:|!|:	=23:|!|:
*>C	*>C
16D#X\LL	8r
16B\	.
*	*8va
16F#X\	8bbL 8b/
16B\JJ	.
*rep	*
16D#\LL	8ddd#X 8dd#X/
16B\	.
16F#\	8fff#J 8ff#/
16B\JJ	.
*	*X8va
*Xrep	*
*rep	*
16D#\LL	4bb 4b\
16B\	.
16F#\	.
16B\JJ	.
*Xrep	*
=24	=24
*rep	*
!	!LO:TX:a:Bi:t=3
16D#X\LL	8.b\L
16B\	.
16F#\	.
16B\JJ	16cc\Jk
*Xrep	*
*rep	*
16D#\LL	16dd#X\LL
16B\	16ee\
16F#\	16ff#\
16B\JJ	16gg\JJ
*Xrep	*
*rep	*
16D#\LL	16aa\LL
16B\	16bb\
16F#\	16ccc\
16B\JJ	16bb\JJ
*Xrep	*
=25	=25
16E\LL	8.bb\L
16B\	.
16G\	.
16B\JJ	16gg\Jk
*rep	*
16E\LL	2bb\
16B\	.
16G\	.
16B\JJ	.
*Xrep	*
*rep	*
16E\LL	.
16B\	.
16G\	.
16B\JJ	.
*Xrep	*
=26	=26
!	!LO:TX:a:Bi:t=3
16D\LL	8.bb\L
16B\	.
16G\	.
16B\JJ	16ccc\Jk
*rep	*
16D\LL	2bb\
16B\	.
16G\	.
16B\JJ	.
*Xrep	*
*rep	*
16D\LL	.
16B\	.
16G\	.
16B\JJ	.
*Xrep	*
!!LO:LB:g=original
=27	=27
16C#X\LL	8r
16A\	.
*	*8va
16E\	8aaL 8a/
16A\JJ	.
*rep	*
16C#\LL	8ccc#X 8cc#X/
16A\	.
16E\	8eeeJ 8ee/
16A\JJ	.
*	*X8va
*Xrep	*
*rep	*
16C#\LL	4aa 4a\
16A\	.
16E\	.
16A\JJ	.
*Xrep	*
=28	=28
16D\LL	8.aa\L
16A\	.
16F#\	.
16A\JJ	16ddd\Jk
*rep	*
!	!LO:TX:a:t=a:problem='a' po prawej stronie nuty 2aa
!	!LO:N:vis=4
16D\LL	2bb\
16A\	.
16F#\	.
16A\JJ	.
*Xrep	*
*rep	*
16D\LL	.
16A\	.
16F#\	.
16A\JJ	.
*Xrep	*
=29	=29
16C#X\LL	8.a\L
16A\	.
16E\	.
16A\JJ	16b\Jk
*rep	*
16C#\LL	16cc#X\LL
16A\	16dd\
16E\	16ee\
16A\JJ	16ff#\JJ
16C#\LL	16gg\LL
*Xrep	*
*rep	*
16A\	16ff#\
16E\	16bb\
16A\JJ	16aa\JJ
*Xrep	*
=30	=30
16D\LL	8.aa\L
16A\	.
16F#\	.
16A\JJ	16ff#\Jk
*rep	*
16D\LL	2aa\
16A\	.
16F#\	.
16A\JJ	.
*Xrep	*
*rep	*
16D\LL	.
16A\	.
16F#\	.
16A\JJ	.
*Xrep	*
!LO:TX:a:t=[segno]:problem=znak segno na kresce taktowej	!LO:TX:a:t=[segno]:problem=znak segno na kresce taktowej
=31||	=31||
*>D	*>D
*clefF4	*clefG2
*k[f#]	*k[f#]
*M3/4	*M3/4
!	!LO:TX:a:t=P:problem=w źródle po lewej stronie systemu (przed Trio) dodatkowa klamra
!	!LO:TX:a:Bi:t=Trio:rj
.	8qd/
!LO:TX:a:t=P:problem=mixed beam	!
8GG/L	8.b/L
8G\J	.
.	16a/Jk
*rep	*
!LO:TX:a:t=P:problem=mixed beam	!
8GG/L	8g/L
8G\J	(<16g/L
.	16f#X/JJ)
*Xrep	*
!LO:TX:a:t=P:problem=mixed beam	!
8EE/L	16g\LL
.	16a\
8E\J	16b\
.	16cc#X\JJ
=32	=32
!LO:TX:a:t=P:problem=mixed beam	!
8DD/L	8dd\L
8D\J	16dd\L
.	16cc#X\JJ
*	*rep
!LO:TX:a:t=P:problem=mixed beam	!
8CC/L	8dd\L
8C\J	16dd\L
.	16cc#\JJ
*	*Xrep
8BBB/L	8dd\L
8BB/J	8dd#XJ 8a 8f#\
=33	=33
!LO:TX:a:t=P:problem=mixed beam	!
8EE/L	8ee\L
8E\J	16ee\L
.	16dd#X\JJ
*rep	*rep
!LO:TX:a:t=P:problem=mixed beam	!
8EE/L	8ee\L
8E\J	16ee\L
.	16dd#\JJ
*Xrep	*Xrep
!!LO:LB:g=original
!LO:TX:a:t=P:problem=mixed beam	!
8CC/L	16ee\LL
.	16ff#\
8C\J	16gg\
.	16aa\JJ
=34	=34
8BBB/L	8bb\L
8BB/J	16bb\L
.	16aa#X\JJ
*rep	*rep
8BBB/L	8bb\L
8BB/J	16bb\L
.	16aa#X\JJ
*Xrep	*Xrep
4BBB/	4bb\
=35	=35
*	*8va
!LO:TX:a:t=P:problem=mixed beam	!
8CC/L	8eeeL 8ee\
8C\J	8ccc\J
*rep	*
!LO:TX:a:t=P:problem=mixed beam	!
8CC/L	8ccc\L
8C\J	16ccc\L
.	16bb\JJ
*Xrep	*
*rep	*
!LO:TX:a:t=P:problem=mixed beam	!
8CC/L	16ccc\LL
.	16ddd\
8C\J	16eee\
.	16fff#\JJ
*Xrep	*
=36	=36
8GGG/L	8ggg\
8GG/J	4ddd\
*rep	*
8GGG/L	.
8GG/J	16eee\LL
.	16ddd\JJ
*Xrep	*
*rep	*
8GGG/L	16ccc\LL
.	16bb\
8GG/J	16aa\
.	16gg#X\JJ
*Xrep	*
=37	=37
8CC/L	4aa\
8C/J	.
4CC/	(>16aa\LL
.	16eee\
.	16ddd#X\
.	16eee\JJ
4r	16dddn\LL
.	16ccc\)
.	16bb\
.	16aa\JJ
*	*X8va
=38	=38
!LO:TX:a:Bi:t=1	!LO:TX:a:Bi:t=1
*>D1	*>D1
!	!LO:TX:a:Bi:t=Loco
4D/	16gg\LL
.	16ff#\
.	16bb\
.	16aa\JJ
4r	16gg\LL
.	16ff#\
.	16ee\
.	16dd\JJ
4r	16cc#X\LL
.	16dd\
.	16ccn\
.	16b\JJ
=39:|!	=39:|!
!LO:TX:a:Bi:t=2	!LO:TX:a:Bi:t=2
*>D2	*>D2
!LO:TX:a:t=P:problem=mixed beam	!
8D\L	16gg\LL
.	16ff#\
8DD/J	16bb\
.	16aa\JJ
8r	4ff# 4a\
8DD/	.
.	8qaa/
!	!LO:N:vis=2
4GG/	4gg 4b\
=40!|:	=40!|:
*>E	*>E
.	8qdd/
!	!LO:TX:a:t=P:problem=mixed beam
2.ryy	8bbL 8gg\
.	16d/L
.	16c#X/JJ
.	8d/L
.	16d/L
.	16c#/JJ
.	16d/LL
.	16e/
.	16f#/
.	16e/JJ
!!LO:LB:g=original
=41	=41
2.ryy	8g/L
.	16g/L
.	16f#/JJ
*	*rep
.	8g/L
.	16g/L
.	16f#/JJ
*	*Xrep
.	16g\LL
.	16a\
.	16b\
.	16cc#X\JJ
=42	=42
2.ryy	8dd\L
.	16dd\L
.	16cc#X\JJ
*	*rep
.	8dd\L
.	16dd\L
.	16cc#\JJ
*	*Xrep
.	16dd\LL
.	16ee\
.	16ff#\
.	16dd\JJ
=43	=43
8g 8A\	8gg\L
8GL 8GG/	8bb 8gg 8dd\
8DJ 8DD/	8aa 8ff# 8dd\
8G 8GG/	8bbJ 8gg 8dd\
8DL 8DD/	8aaL 8ff# 8dd\
8BBJ 8BBB/	8ddd#XJ 8aa 8ff#\
=44	=44
!	!LO:TX:a:t=P:problem=mixed beam
!	!LO:SIC:n=3:s=8gg:v
2.ryy	8eeeL 8bb 8ff#\
.	16e/L
.	16d#X/JJ
.	8e/L
.	16e/L
.	16d#/JJ
.	16e/LL
.	16f#/
.	16g/
.	16a/JJ
=45	=45
2.ryy	8b/L
.	16b/L
.	16a#X/JJ
.	8b/L
.	16b/L
.	16a#/JJ
.	16b\LL
.	16cc#X\
.	16dd#X\
.	16b\JJ
=46	=46
2.ryy	8ee\L
.	16ee\L
.	16dd#X\JJ
*	*rep
.	8ee\L
.	16ee\L
.	16dd#\JJ
*	*Xrep
.	16ee\LL
.	16ff#\
.	16gg\
.	16aa\JJ
=47	=47
!	!LO:TX:a:t=h
!LO:TX:a:t=P:problem=note position	!
8b> 8B\	8bb\L
8DL 8DD/	8eee 8gg\
8BB 8BBB/	8ddd 8bb 8ff#\
8DJ 8BB 8DD/	8eeeJ 8bb 8gg\
4BB 4BBB/	4ddd 4bb 4gg\
=48	=48
8qCC/	.
!	!LO:TX:a:t=P:problem=mixed beam
4C/	8cccL 8gg\
.	16e/L
.	16c/JJ
8qCC/	.
4C/	8gL 8e/
.	16gL 16e/
.	16eJJ 16c/
8qCC/	.
4C/	8ccL 8g/
.	16ccL 16g/
.	16e/JJ
!!LO:PB:g=original
=49	=49
*rep	*
8qCC/	.
4C/	16eeLL 16cc\
.	16eeJ 16cc\
.	8g\J
8qCC/	.
4C/	8ggL 8ee\
.	16eeeL 16gg\
.	16gg\JJ
8qCC/	.
4C/	16eeeLL 16ccc\
.	16gg\
.	16eee 16ccc\
.	16gg\JJ
*Xrep	*
=50	=50
8qBBB/	.
!	!LO:TX:a:t=P:problem=mixed beam
4BB/	8eeeL 8bb 8gg\
.	16eL 16G/
.	16G/JJ
*rep	*
8qBBB/	.
4BB/	8gL 8e/
.	16gL 16e/
.	16B/JJ
8qBBB/	.
4BB/	8bL 8g/
.	16bL 16g/
!	!LO:TX:b:t=e
!	!LO:SIC:s=16e:v
.	16d/JJ
*Xrep	*
=51	=51
*rep	*
8qBBB/	.
4BB/	8eeL 8b\
.	16eeL 16b\
.	16g\JJ
8qBBB/	.
4BB/	8eeL 8b\
.	16eeeL 16bb\
.	16gg\JJ
8qBBB/	.
!	!LO:N:vis=8
4BB/	16eeeLL 16bb\
!	!LO:N:vis=8
.	16gg\
!	!LO:N:vis=8
.	16eee 16bb\
!	!LO:N:vis=8
.	16gg\JJ
*Xrep	*
=52	=52
8qAAA#X/	.
!	!LO:TX:a:t=P:problem=mixed beam
4AA#X/	8eeeL 8bb 8gg#X\
.	16eL 16c#X/
.	16A#X/JJ
*rep	*
8qAAA#/	.
4AA#/	8gL 8e/
.	16gL 16e/
.	16c#/JJ
8qAAA#/	.
4AA#/	8a#XL 8g/
.	16a#L 16g/
.	16e/JJ
*Xrep	*
=53	=53
*rep	*
8qAAA#X/	.
4AA#X/	8cc#XL 8a#X\
.	16cc#L 16a#\
.	16g\JJ
8qAAA#/	.
4AA#/	8eeL 8cc#\
.	16eeeL 16ccc#X\
.	16gg\JJ
8qAAA#/	.
4AA#/	16eeeLL 16ccc#\
.	16gg\JJ
*	*rep
.	16eeeLL 16ccc#\
.	16gg\JJ
*Xrep	*Xrep
=54	=54
8qBBB#X/	.
8D/L	8ddd#XL 8bb\
16D#XL 16DD#X/	16bbL 16ff# 16b\
16D#JJ 16DD#/	16bbJJ 16ff# 16b\
8D#L 8DD#/	8bbL 8ff# 8b\
16EL 16EE/	16eeeL 16bb 16gg\
16EJJ 16EE/	16eeeJJ 16bb 16gg\
8EL 8EE/	8eeeL 8bb 8gg\
8EJ 8EE/	8eeeJ 8bb 8gg\
=55	=55
!	!LO:SIC:n=1:s=8ddd#:v
8BBL 8BBB/	8dddL 8bb 8ff#\
16D#XL 16DD#X/	16bbL 16ff# 16b\
16D#JJ 16DD#/	16bbJJ 16ff# 16b\
8D#L 8DD#/	8bbL 8ff# 8b\
8E 8EE/	8eee 8bb 8gg\
!	!LO:SIC:n=1:s=8ddd#:v
8D# 8DD#/	8ddd 8bb 8ff#\
8EJ 8EE/	8eeeJ 8bb 8gg\
=56	=56
8BBL 8BBB/	8dddL 8bb 8ff#\
16DL 16DD/	16dddL 16aa 16dd\
16DJJ 16DD/	16dddJJ 16aa 16dd\
!!LO:LB:g=original
8BBL 8BBB/	8dddL 8aa 8dd\
16F#L 16FF#/	16eeeL 16ccc#X 16aa\
16F#JJ 16FF#/	16eeeJJ 16ccc# 16aa\
8F#L 8FF#/	8eeeL 8ccc# 8aa\
8EJ 8EE/	8eeeJ 8ccc# 8aa\
=57	=57
!	!LO:TX:a:t=P:problem=mixed beam
2D 2DD/	16fff#LL 16ddd 16aa\
.	16d/
.	16c/
.	16d/JJ
.	16f#/LL
.	16d/
.	16a/
.	16f#/JJ
4Cn 4CCn/	16dd\LL
.	16a\
.	16aa\
.	16ff#\JJ
=58	=58
4BB#X 4BBB#X/	16dd\LL
.	16ddd\
.	16ff#\
.	16aa\JJ
2C 2CC/	16ee\LL
.	16eee\
.	16ddd#X\
.	16ddd#\JJ
.	16dddn\LL
.	16ccc\
.	16bb\
.	16aa\JJ
=59	=59
*	*^
!LO:TX:a:t=P:problem=mixed beam	!	!
8D\L	16gg\LL	4ryy
.	16ff#\	.
8DD/J	16bb\	.
.	16aa\JJ	.
8r	4ccc/	4ff# 4a\
8D 8DD/	.	.
!	!LO:N:vis=2	!
4GG/	4gg 4b\	4ryy
*	*v	*v
==:|!	==:|!
*-	*-
!!!system-decoration: {(s1,s2)}
!!!RDF**kern: > = above
!!!RDF**kern: < = below
!!!EED: Wojciech Jakubiak-Danek
!!!EEV: 2020-12-11
!!!ENC: Marcin Jachim
!!!END: 2020-06-17
!!!YEC: Copyright 2022 Narodowy Instytut Fryderyka Chopina (https://polishscores.org)
!!!YEM: License CC-BY-4.0 (https://creativecommons.org/licenses/by/4.0)
